X:1
T:42a
T:Hugo Distler
T:13th cent.
T:42.  We Travel in the Name of God In Gottes Namen fahren wir Confirmation
T:Bärenreiter
T:Bärenreiter
C:Hugo Distler
Z:13th cent.
Z:Bärenreiter
%%score [ 1 2 3 ]
L:1/8
Q:1/4=84
M:4/4
K:C
V:1 treble nm="Sop. 1"
V:2 treble nm="Sop. 2"
V:3 treble nm="Alto"
V:1
 z G G2 G2 | G2 G2 A2 B2 | c4 z2 (Bc) | d2 d2 c2 G2 | A2 B2 !breath!c2 c2 | d2 d2 c3 G | %6
w: 1. We tra- vel|in the name of|God, and _|seek the help and|grace of God. And|may the Fa- ther's|
w: 2. May Christ our|Guide and Es- cort|be, stay _|by our side a-|long the way, and|turn a- way the|
w: 3. The ho- ly|Spi- rit shall up-|hold us _|with His gifts so|man- i- fold: strength,|com- fort for our|
 A2 G2 F2 z F | A2 _B2 c2 c2 | _B2 G2 B4 | z2 A2 G2 F2 | G2 |] %11
w: good- ness still pro-|tect us, bo- dy,|soul, and will.|Ky- ri- e-|leis!|
w: cun- ning foe and|all that would God's|Word op- pose.|Ky- ri- e-|leis!|
w: ev- 'ry need, and|to our home with|God shall lead!|Ky- ri- e-|leis!|
V:2
 z2 z2 z D | D2 D2 E2 D2 | (E/^F/ G2) F !breath!G2 G2 | =F2 G2 (AG/F/) E2 | E3 D !breath!E2 E2 | %5
w: 1. We|tra- vel in the|name _ _ of God, and|seek the help _ _ and|grace of God. And|
w: 2. May|Christ our Guide and|Es- * * cort be, stay|by our side _ _ a-|long the way, and|
w: 3. The|ho- ly Spi- rit|shall _ _ up- hold us|with His gifts _ _ so|man- i- fold: strength,|
 A2 G2 (AGF)E | D3 C D2 z D | DE F2 G2 (A2- | AG)(FE) !breath!D2 (G2 | F3) E D4 | =E2 |] %11
w: may the Fa- * * ther's|good- ness still pro-|tect us, bo- dy, soul,|_ _ and _ will. Ky-|* ri- e-|leis!|
w: turn a- way _ _ the|cun- ning foe and|all that would God's Word|_ _ op- * pose. Ky-|* ri- e-|leis!|
w: com- fort for _ _ our|ev- 'ry need, and|to our home with God|_ _ shall _ lead! Ky-|* ri- e-|leis!|
V:3
 z2 z2 z G, | A,2 B,2 C2 B,2 | (A,B,)(CD) !breath!E3 E | (DC) B,2 A,2 E2 | (DC) B,2 A,4 | z8 | %6
w: 1. We|tra- vel in the|name _ of _ God, and|seek _ the help and|grace _ of God.||
w: 2. May|Christ our Guide and|Es- * cort _ be, stay|by _ our side a-|long _ the way,||
w: 3. The|ho- ly Spi- rit|shall _ up- * hold us|with _ His gifts so|man- * i- fold:||
 z4 z2 z D | C2 D2 _ED (C2 | D2) D2 !breath!G,4 | D2 (C_B,) C4 | C2 |] %11
w: pro-|tect us, bo- dy, soul,|_ and will.|Ky- ri- * e-|leis!|
w: and|all that would God's Word|_ op- pose.|Ky- ri- * e-|leis!|
w: and|to our home with God|_ shall lead!|Ky- ri- * e-|leis!|

